X: 1
T: Woodchopper's Reel
C: Ned Landry
R: reel
S: Fiddle Hell Online 2021-04-15 Rodney Miller jam
Z: 2021 John Chambers <jc:trillian.mit.edu>
M: C|
L: 1/8
K: D
fg |\
"D"afdB AdFA | DFAd f2ef | "A"(3gfe cB \
[1,3 Aceg | a^gab a2 :|[2,4 Acec | "D"dfec d2 :|
|: FE |:\
"D"DFAd (3BdB AF | DFAd (3BdB Az | "A"A,CEA ceaf |\
[1,3 gfed cBAF :|[2,4 (3gfe cA "D"d2 :|
